X:8
T:Over the Moor to Maggie
R:reel
D:Oisin: Over the Moor to Maggie.
D:Music at Matt Molloy's.
Z:id:hn-reel-8
M:C|
K:G
~G3A BGBd | efge dBAG | EAAG ABAG | EAAG A2DE |
~G3A BGBd | efge dBAG | EG~G2 BGAG |1 EGGF G2DE :|2 EGGF G2ga ||
|: ~b3g ~a3f | gage d2Bd | eaag abag | eaag a2ga |
bg~g2 af~f2 | gage d2Bd | eg~g2 bgag |1 eggf g2ga :|2 eggf g2Bd ||
|: ~e3c d2dB | c2cA B2AG | EAAG ABAG | EAAG ABcd |
~e3c dedB | cA~A2 B2AG | EG~G2 BGAG |1 EGGF G2Bd :|2 EGGF G2DE ||
P:variations
|: ~G3A BABd | edge dBAG | EA~A2 BGAG | EAAG AcGA |
GFGA BABd | edge dBAG | EG~G2 BGAG |1 EGGF G2DE :|2 EGGF G2ga ||
|: bg~g2 agef | ~g3e d2Bd | ea~a2 bgag | eaag abga |
~b3g abaf | gage dGBd | eg~g2 bgag |1 eggf g2ga :|2 eggf g2Bd ||
|: ~e3c dedB | cA~A2 B2AG | EA~A2 BGAG | EAAG ABcd |
~e3c d2dB | c2cA B2AG | EG~G2 BGAG |1 EGGF G2Bd :|2 EGGF G2DE ||

